images/Logo.svg

<svg width="115" height="24" viewBox="0 0 115 24" fill="none" xmlns="http://www.w3.org/2000/svg">
<path d="M5.706 5.756H8.01L9.468 9.986L10.944 5.756H13.23L11.034 11.57L12.654 15.638L16.272 5.72H18.972L13.86 18.5H11.718L9.468 13.136L7.236 18.5H5.094L0 5.72H2.664L6.3 15.638L7.884 11.57L5.706 5.756ZM29.6952 16.322V18.5H20.8212V5.72H29.5332V7.898H23.3052V10.976H28.6872V12.992H23.3052V16.322H29.6952ZM42.4678 15.206C42.4678 15.926 42.2818 16.532 41.9098 17.024C41.5378 17.504 41.0338 17.87 40.3978 18.122C39.7738 18.374 39.0898 18.5 38.3458 18.5H32.1718V5.72H39.0118C39.6118 5.72 40.1278 5.882 40.5598 6.206C41.0038 6.518 41.3398 6.926 41.5678 7.43C41.8078 7.922 41.9278 8.438 41.9278 8.978C41.9278 9.59 41.7718 10.172 41.4598 10.724C41.1478 11.276 40.6918 11.684 40.0918 11.948C40.8238 12.164 41.3998 12.554 41.8198 13.118C42.2518 13.682 42.4678 14.378 42.4678 15.206ZM39.9658 14.738C39.9658 14.414 39.8998 14.126 39.7678 13.874C39.6358 13.61 39.4558 13.406 39.2278 13.262C39.0118 13.106 38.7598 13.028 38.4718 13.028H34.6558V16.394H38.3458C38.6458 16.394 38.9158 16.322 39.1558 16.178C39.4078 16.022 39.6058 15.818 39.7498 15.566C39.8938 15.314 39.9658 15.038 39.9658 14.738ZM34.6558 7.844V11.066H37.9678C38.2438 11.066 38.4958 11 38.7238 10.868C38.9518 10.736 39.1318 10.55 39.2638 10.31C39.4078 10.07 39.4798 9.782 39.4798 9.446C39.4798 9.122 39.4138 8.84 39.2818 8.6C39.1618 8.36 38.9938 8.174 38.7778 8.042C38.5738 7.91 38.3398 7.844 38.0758 7.844H34.6558Z" fill="#4D5AE5"/>
<path d="M52.946 9.068C52.862 8.984 52.706 8.87 52.478 8.726C52.262 8.582 51.992 8.444 51.668 8.312C51.356 8.18 51.014 8.066 50.642 7.97C50.27 7.862 49.892 7.808 49.508 7.808C48.836 7.808 48.326 7.934 47.978 8.186C47.642 8.438 47.474 8.792 47.474 9.248C47.474 9.596 47.582 9.872 47.798 10.076C48.014 10.28 48.338 10.454 48.77 10.598C49.202 10.742 49.742 10.898 50.39 11.066C51.23 11.27 51.956 11.522 52.568 11.822C53.192 12.11 53.666 12.494 53.99 12.974C54.326 13.442 54.494 14.066 54.494 14.846C54.494 15.53 54.368 16.118 54.116 16.61C53.864 17.09 53.516 17.48 53.072 17.78C52.628 18.08 52.124 18.302 51.56 18.446C50.996 18.578 50.396 18.644 49.76 18.644C49.124 18.644 48.488 18.578 47.852 18.446C47.216 18.314 46.604 18.128 46.016 17.888C45.428 17.636 44.888 17.336 44.396 16.988L45.494 14.846C45.602 14.954 45.794 15.098 46.07 15.278C46.346 15.446 46.682 15.62 47.078 15.8C47.474 15.968 47.906 16.112 48.374 16.232C48.842 16.352 49.316 16.412 49.796 16.412C50.468 16.412 50.978 16.298 51.326 16.07C51.674 15.842 51.848 15.518 51.848 15.098C51.848 14.714 51.71 14.414 51.434 14.198C51.158 13.982 50.774 13.796 50.282 13.64C49.79 13.472 49.208 13.292 48.536 13.1C47.732 12.872 47.06 12.62 46.52 12.344C45.98 12.056 45.578 11.696 45.314 11.264C45.05 10.832 44.918 10.292 44.918 9.644C44.918 8.768 45.122 8.036 45.53 7.448C45.95 6.848 46.514 6.398 47.222 6.098C47.93 5.786 48.716 5.63 49.58 5.63C50.18 5.63 50.744 5.696 51.272 5.828C51.812 5.96 52.316 6.134 52.784 6.35C53.252 6.566 53.672 6.8 54.044 7.052L52.946 9.068ZM66.4691 7.898H62.3831V18.5H59.9171V7.898H55.8311V5.72H66.4691V7.898ZM74.0136 18.59C72.9936 18.59 72.1236 18.422 71.4036 18.086C70.6956 17.738 70.1196 17.264 69.6756 16.664C69.2436 16.064 68.9256 15.386 68.7216 14.63C68.5176 13.862 68.4156 13.064 68.4156 12.236V5.72H70.8996V12.236C70.8996 12.764 70.9476 13.28 71.0436 13.784C71.1516 14.276 71.3256 14.72 71.5656 15.116C71.8056 15.512 72.1236 15.824 72.5196 16.052C72.9156 16.28 73.4076 16.394 73.9956 16.394C74.5956 16.394 75.0936 16.28 75.4896 16.052C75.8976 15.812 76.2156 15.494 76.4436 15.098C76.6836 14.702 76.8576 14.258 76.9656 13.766C77.0736 13.262 77.1276 12.752 77.1276 12.236V5.72H79.5936V12.236C79.5936 13.112 79.4856 13.934 79.2696 14.702C79.0656 15.47 78.7356 16.148 78.2796 16.736C77.8356 17.312 77.2596 17.768 76.5516 18.104C75.8436 18.428 74.9976 18.59 74.0136 18.59ZM82.6356 18.5V5.72H87.2796C88.6716 5.72 89.8356 6.008 90.7716 6.584C91.7076 7.148 92.4096 7.916 92.8776 8.888C93.3456 9.848 93.5796 10.916 93.5796 12.092C93.5796 13.388 93.3216 14.516 92.8056 15.476C92.2896 16.436 91.5576 17.18 90.6096 17.708C89.6736 18.236 88.5636 18.5 87.2796 18.5H82.6356ZM91.0776 12.092C91.0776 11.264 90.9276 10.538 90.6276 9.914C90.3276 9.278 89.8956 8.786 89.3316 8.438C88.7676 8.078 88.0836 7.898 87.2796 7.898H85.1196V16.322H87.2796C88.0956 16.322 88.7856 16.142 89.3496 15.782C89.9136 15.41 90.3396 14.906 90.6276 14.27C90.9276 13.622 91.0776 12.896 91.0776 12.092ZM96.0604 18.5V5.72H98.5444V18.5H96.0604ZM107.205 18.59C106.269 18.59 105.417 18.41 104.649 18.05C103.893 17.69 103.239 17.204 102.687 16.592C102.147 15.968 101.727 15.272 101.427 14.504C101.127 13.724 100.977 12.926 100.977 12.11C100.977 11.258 101.133 10.448 101.445 9.68C101.769 8.9 102.207 8.21 102.759 7.61C103.323 6.998 103.983 6.518 104.739 6.17C105.507 5.81 106.347 5.63 107.259 5.63C108.183 5.63 109.023 5.816 109.779 6.188C110.547 6.56 111.201 7.058 111.741 7.682C112.281 8.306 112.701 9.002 113.001 9.77C113.301 10.538 113.451 11.33 113.451 12.146C113.451 12.986 113.295 13.796 112.983 14.576C112.671 15.344 112.233 16.034 111.669 16.646C111.117 17.246 110.457 17.72 109.689 18.068C108.933 18.416 108.105 18.59 107.205 18.59ZM103.497 12.11C103.497 12.662 103.581 13.196 103.749 13.712C103.917 14.228 104.157 14.69 104.469 15.098C104.793 15.494 105.183 15.812 105.639 16.052C106.107 16.28 106.635 16.394 107.223 16.394C107.823 16.394 108.357 16.274 108.825 16.034C109.293 15.782 109.683 15.452 109.995 15.044C110.307 14.624 110.541 14.162 110.697 13.658C110.865 13.142 110.949 12.626 110.949 12.11C110.949 11.558 110.859 11.03 110.679 10.526C110.511 10.01 110.265 9.554 109.941 9.158C109.629 8.75 109.239 8.432 108.771 8.204C108.315 7.964 107.799 7.844 107.223 7.844C106.611 7.844 106.071 7.97 105.603 8.222C105.147 8.462 104.763 8.786 104.451 9.194C104.139 9.602 103.899 10.058 103.731 10.562C103.575 11.066 103.497 11.582 103.497 12.11Z" fill="#2E2F42"/>
</svg>

<svg xmlns="http://www.w3.org/2000/svg" fill="none" viewBox="0 0 115 24">
  <path fill="#4D5AE5" d="M5.706 5.756H8.01l1.458 4.23 1.476-4.23h2.286l-2.196 5.814 1.62 4.068 3.618-9.918h2.7L13.86 18.5h-2.142l-2.25-5.364L7.236 18.5H5.094L0 5.72h2.664L6.3 15.638l1.584-4.068-2.178-5.814Zm23.99 10.566V18.5H20.82V5.72h8.712v2.178h-6.228v3.078h5.382v2.016h-5.382v3.33h6.39Zm12.772-1.116c0 .72-.186 1.326-.558 1.818-.372.48-.876.846-1.512 1.098a5.43 5.43 0 0 1-2.052.378h-6.174V5.72h6.84c.6 0 1.116.162 1.548.486.444.312.78.72 1.008 1.224a3.496 3.496 0 0 1-.108 3.294c-.312.552-.768.96-1.368 1.224.732.216 1.308.606 1.728 1.17.432.564.648 1.26.648 2.088Zm-2.502-.468c0-.324-.066-.612-.198-.864a1.494 1.494 0 0 0-.54-.612 1.257 1.257 0 0 0-.756-.234h-3.816v3.366h3.69c.3 0 .57-.072.81-.216.252-.156.45-.36.594-.612a1.64 1.64 0 0 0 .216-.828Zm-5.31-6.894v3.222h3.312c.276 0 .528-.066.756-.198.228-.132.408-.318.54-.558.144-.24.216-.528.216-.864 0-.324-.066-.606-.198-.846a1.339 1.339 0 0 0-.504-.558 1.264 1.264 0 0 0-.702-.198h-3.42Z"/>
  <path fill="#2E2F42" d="M52.946 9.068a2.956 2.956 0 0 0-.468-.342 4.595 4.595 0 0 0-.81-.414 7.341 7.341 0 0 0-1.026-.342 4.048 4.048 0 0 0-1.134-.162c-.672 0-1.182.126-1.53.378-.336.252-.504.606-.504 1.062 0 .348.108.624.324.828.216.204.54.378.972.522.432.144.972.3 1.62.468.84.204 1.566.456 2.178.756.624.288 1.098.672 1.422 1.152.336.468.504 1.092.504 1.872 0 .684-.126 1.272-.378 1.764-.252.48-.6.87-1.044 1.17-.444.3-.948.522-1.512.666a7.88 7.88 0 0 1-1.8.198 9.366 9.366 0 0 1-1.908-.198 10.486 10.486 0 0 1-1.836-.558 8.792 8.792 0 0 1-1.62-.9l1.098-2.142c.108.108.3.252.576.432.276.168.612.342 1.008.522.396.168.828.312 1.296.432.468.12.942.18 1.422.18.672 0 1.182-.114 1.53-.342.348-.228.522-.552.522-.972 0-.384-.138-.684-.414-.9-.276-.216-.66-.402-1.152-.558a36.605 36.605 0 0 0-1.746-.54c-.804-.228-1.476-.48-2.016-.756-.54-.288-.942-.648-1.206-1.08-.264-.432-.396-.972-.396-1.62 0-.876.204-1.608.612-2.196.42-.6.984-1.05 1.692-1.35.708-.312 1.494-.468 2.358-.468.6 0 1.164.066 1.692.198.54.132 1.044.306 1.512.522.468.216.888.45 1.26.702l-1.098 2.016Zm13.523-1.17h-4.086V18.5h-2.466V7.898h-4.086V5.72H66.47v2.178Zm7.545 10.692c-1.02 0-1.89-.168-2.61-.504a4.674 4.674 0 0 1-1.728-1.422 6.22 6.22 0 0 1-.954-2.034 9.286 9.286 0 0 1-.306-2.394V5.72H70.9v6.516c0 .528.048 1.044.144 1.548.108.492.282.936.522 1.332.24.396.558.708.954.936.396.228.888.342 1.476.342.6 0 1.098-.114 1.494-.342.408-.24.726-.558.954-.954.24-.396.414-.84.522-1.332a7.282 7.282 0 0 0 .162-1.53V5.72h2.466v6.516c0 .876-.108 1.698-.324 2.466a5.642 5.642 0 0 1-.99 2.034 4.664 4.664 0 0 1-1.728 1.368c-.708.324-1.554.486-2.538.486Zm8.622-.09V5.72h4.644c1.392 0 2.556.288 3.492.864a5.349 5.349 0 0 1 2.106 2.304c.468.96.702 2.028.702 3.204 0 1.296-.258 2.424-.774 3.384a5.464 5.464 0 0 1-2.196 2.232c-.936.528-2.046.792-3.33.792h-4.644Zm8.442-6.408c0-.828-.15-1.554-.45-2.178a3.383 3.383 0 0 0-1.296-1.476c-.564-.36-1.248-.54-2.052-.54h-2.16v8.424h2.16c.816 0 1.506-.18 2.07-.54.564-.372.99-.876 1.278-1.512.3-.648.45-1.374.45-2.178ZM96.06 18.5V5.72h2.484V18.5H96.06Zm11.145.09c-.936 0-1.788-.18-2.556-.54a6.209 6.209 0 0 1-1.962-1.458 7.136 7.136 0 0 1-1.26-2.088c-.3-.78-.45-1.578-.45-2.394 0-.852.156-1.662.468-2.43.324-.78.762-1.47 1.314-2.07a6.182 6.182 0 0 1 1.98-1.44 5.863 5.863 0 0 1 2.52-.54c.924 0 1.764.186 2.52.558a6.05 6.05 0 0 1 1.962 1.494c.54.624.96 1.32 1.26 2.088.3.768.45 1.56.45 2.376 0 .84-.156 1.65-.468 2.43a6.817 6.817 0 0 1-1.314 2.07 6.052 6.052 0 0 1-1.98 1.422 5.869 5.869 0 0 1-2.484.522Zm-3.708-6.48c0 .552.084 1.086.252 1.602.168.516.408.978.72 1.386.324.396.714.714 1.17.954a3.57 3.57 0 0 0 1.584.342c.6 0 1.134-.12 1.602-.36a3.602 3.602 0 0 0 1.17-.99c.312-.42.546-.882.702-1.386a4.975 4.975 0 0 0 .252-1.548c0-.552-.09-1.08-.27-1.584a4.181 4.181 0 0 0-.738-1.368 3.235 3.235 0 0 0-1.17-.954 3.273 3.273 0 0 0-1.548-.36c-.612 0-1.152.126-1.62.378-.456.24-.84.564-1.152.972a4.66 4.66 0 0 0-.72 1.368 5.206 5.206 0 0 0-.234 1.548Z"/>
</svg>
